Yaru++/actions/16/package.svg

<svg viewBox="0 0 16 16" xmlns="http://www.w3.org/2000/svg">
  <path d="m5 1v6h6v-6zm-4 8.166667v5.833333h5.8333334v-5.833333zm8.166667 0v5.833333h5.833333v-5.833333z" fill="#808080"/>
</svg>

<svg xmlns="http://www.w3.org/2000/svg" version="1.1" viewBox="0 0 16 16">
 <defs>
  <style id="current-color-scheme" type="text/css">
   .ColorScheme-Text { color:#808080; }
  </style>
 </defs>
 <path style="fill:currentColor" class="ColorScheme-Text" d="m 5,1 v 6 h 6 V 1 Z M 1,9.166667 V 15 H 6.8333334 V 9.166667 Z m 8.166667,0 V 15 H 15 V 9.166667 Z"/>
</svg>
